X:1
T:Title
%%score [ ( 1 2 ) ( 3 4 ) ] { ( 5 6 ) | ( 7 8 ) }
L:1/8
Q:1/4=120
M:4/4
K:A
V:1 treble nm="Midi_74"
V:2 treble 
V:3 bass nm="Midi_74"
V:4 bass 
V:5 treble nm="Org."
V:6 treble 
V:7 bass 
V:8 bass 
V:1
 e8 | (d2 c2) (B2 A2) |{A} G8 || (A6 G2) | F4 d4 | B4 A4 | e8 || c8 | (B2 A2) (G2 F2) |{F} ^E8 || %10
 (=E6 D2) | C4"^William Henry Havergal\n(1793-1870)" A4 | F4 G4 | A8 |] %14
V:2
 E8 | (F2 E2) (D2 ^D2) | E8 || E8 | D4 F4 | F4 A4 | G8 || E8 | (D2 C2) (B,2 ^B,2) | C8 || B,8 | %11
 A,4 E4 | D4 D4 | C8 |] %14
V:3
 A,8 | A,4 A,4 | B,8 || A,8 | A,4 D4 | D4 ^D4 | E8 || A,8 | F,4 (B,2 A,2) |{A,} G,8 || G,8 | %11
 A,4 A,4 | B,4 B,4 | A,8 |] %14
V:4
 C,8 | D,4 F,4 | E,8 || C,8 | D,4 B,,4 | D,4 F,4 | E,8 || A,,8 | B,,4 D,4 | C,8 || E,8 | F,4 C,4 | %12
 D,4 E,4 | A,,8 |] %14
V:5
 [Ae]8 | d2 c2 B2 A2 |{A} G8 || A6 G2 | F4 d4 | B4 A4 | e8 || c8 | B2 A2 G2 F2 |{F} ^E8 || =E6 D2 | %11
 C4 A4 | F4 G4 | A8 |] %14
V:6
 E8 | F2 E2 D2 ^D2 | E8 || E8 | D4 [DF]4 | [DF]4 ^D4 | [EG]8 || [EA]8 | D2 C2 B,2 ^B,2 | C8 || x8 | %11
 x4 E4 | D4 D4 | C8 |] %14
V:7
 x8 | x8 | x8 || A,8 | A,4 x4 | x8 | x8 || x8 | x4 B,2 A,2 | G,8 || x8 | A,4 A,4 | B,4 B,4 | A,8 |] %14
V:8
 C,8 | D,4 F,4 | E,8 || C,8 | D,4 B,,4 | D,4 F,4 | E,8 || A,,8 | B,,4 D,4 | C,8 || [E,G,B,]8 | %11
 F,4 C,4 | D,4 E,4 | A,,8 |] %14

